svgs/regular/alarm-plus.svg

<svg xmlns="http://www.w3.org/2000/svg" viewBox="0 0 512 512"><!-- Font Awesome Pro 6.0.0-alpha2 by @fontawesome - https://fontawesome.com License - https://fontawesome.com/license (Commercial License) --><path d="M96 0C42.98 0 0 42.98 0 96C0 114.949 5.672 132.496 15.148 147.375L161.057 25.785C143.932 9.914 121.191 0 96 0ZM328.014 264H280.014V216C280.014 202.75 269.264 192 256.014 192S232.014 202.75 232.014 216V264H184.014C170.764 264 160.014 274.75 160.014 288S170.764 312 184.014 312H232.014V360C232.014 373.25 242.764 384 256.014 384S280.014 373.25 280.014 360V312H328.014C341.264 312 352.014 301.25 352.014 288S341.264 264 328.014 264ZM256.014 64C132.303 64 32.014 164.289 32.014 288C32.014 341.207 50.646 390.016 81.635 428.441L39.045 471.031C34.357 475.719 32.014 481.859 32.014 488C32.014 500.79 42.312 512 56.014 512C62.154 512 68.295 509.656 72.982 504.969L115.572 462.379C153.998 493.367 202.807 512 256.014 512S358.029 493.367 396.455 462.379L439.045 504.969C443.732 509.656 449.873 512 456.014 512C469.723 512 480.014 500.79 480.014 488C480.014 481.859 477.67 475.719 472.982 471.031L430.393 428.441C461.381 390.016 480.014 341.207 480.014 288C480.014 164.289 379.725 64 256.014 64ZM256.014 464C158.967 464 80.014 385.047 80.014 288S158.967 112 256.014 112S432.014 190.953 432.014 288S353.061 464 256.014 464ZM416 0C390.809 0 368.068 9.914 350.943 25.785L496.852 147.375C506.328 132.496 512 114.949 512 96C512 42.98 469.02 0 416 0Z "></path></svg>

<svg xmlns="http://www.w3.org/2000/svg" viewBox="0 0 512 512"><!--! Font Awesome Pro 6.0.0-alpha3 by @fontawesome - https://fontawesome.com License - https://fontawesome.com/license (Commercial License) --><path d="M95.1 0c-53.02 0-96 42.97-96 95.99c0 18.95 5.738 36.41 15.22 51.29l145.1-121.6C144.1 9.805 121.2 0 95.1 0zM328 264h-48v-48C280 202.8 269.3 192 256 192S232 202.8 232 216v48h-48C170.8 264 160 274.8 160 288s10.75 24 24 24h48v48C232 373.3 242.8 384 256 384s24-10.75 24-24v-48h48C341.3 312 352 301.3 352 288S341.3 264 328 264zM255.1 63.1C132.3 63.1 32 164.3 32 287.1c0 53.21 18.63 102 49.62 140.5l-42.59 42.59C34.34 475.7 32 481.9 32 488C32 500.8 42.3 512 56 512c6.141 0 12.28-2.344 16.97-7.031l42.59-42.59C153.1 493.4 202.8 512 256 512s102-18.63 140.4-49.62l42.59 42.59C443.7 509.7 449.9 512 456 512c13.71 0 24-11.21 24-24c0-6.141-2.344-12.28-7.031-16.97l-42.59-42.59c30.99-38.43 49.62-87.25 49.62-140.5C479.1 164.3 379.7 63.1 255.1 63.1zM256 464c-97.05 0-176-78.95-176-176S158.1 112 256 112s176 78.95 176 176S353 464 256 464zM415.1 0c-25.19 0-47.98 9.805-65.1 25.68l145.9 121.6c9.477-14.88 15.22-32.34 15.22-51.29C511.1 42.97 469 0 415.1 0z"/></svg>
